X:1
T:Title
%%score { ( 1 3 4 ) | 2 }
L:1/8
M:3/4
K:D
V:1 treble nm="Grand Piano"
V:3 treble 
V:4 treble 
V:2 bass 
V:1
 z2 z[Q:1/4=80] F D>G | F3 D E>D | C3 D F>A | G3 G F>=F |[M:3/8] F3 | FD>G |[M:3/4] F3 A G>F | %7
 E3 F A>G | F3 G F>E |[M:3/8] D3 |[M:1/4] (3DFA |[M:3/4] d4 z2 | (3[FA-][FA-][FA-] A2 (3ABF | %13
 (3z EE z2 (3GAc | A4 z2 | (3z GG z2 (3Bed | d4 z2 | %17
 A4 z2[Q:1/4=78][Q:1/4=75][Q:1/4=73][Q:1/4=70][Q:1/4=68][Q:1/4=65][Q:1/4=63] |[M:5/8] D-D- D3 |] %19
V:2
 z2 z A, F,>B, | A,3 F, G,>F, | E,3 F, A,>=C | B,3 B, A,>^G, |[M:3/8] A,3 | A,F,>B, | %6
[M:3/4] A,3[K:treble] F E>D | C3 D C>[K:bass]B, | A,3 B, A,>G, |[M:3/8] F,3 |[M:1/4] z2 | %11
[M:3/4][K:treble] (3[G,B,G][G,B,][G,B,] [G,B,]2 z2 | (3[D,D][D,D][D,D] [D,D]2 z2 | %13
 (3[E,CE][E,C][E,C] [E,C]2 z2 | (3[F,D]F,F, F,2 z2 | (3[G,DG][G,D][G,D] [G,D]2 z2 | %16
 (3[^G,D=F][G,D][G,D] [G,D]2 z2 | (3[A,DF][K:bass][A,D][A,D] [A,D]2 z2 | %18
[M:5/8] [D,F,A,]/[D,G,][D,G,]/ [D,F,]3 |] %19
V:3
 x6 | x6 | x6 | x6 |[M:3/8] x3 | x3 |[M:3/4] x6 | x6 | x6 |[M:3/8] x3 |[M:1/4] x2 | %11
[M:3/4] (3z GG z2 (3BdB | z2 F2 z2 | G4 z2 | (3z DD z2 (3Adc | B4 z2 | (3z =FF z2 (3d^FB | %17
 (3z FF z2 (3GFE |[M:5/8] z/ B,B,/ A,3 |] %19
V:4
 x6 | x6 | x6 | x6 |[M:3/8] x3 | x3 |[M:3/4] x6 | x6 | x6 |[M:3/8] x3 |[M:1/4] x2 | %11
[M:3/4] z2 G2 z2 | x6 | z2 E2 z2 | z2 D2 z2 | z2 G2 z2 | z2 =F2 z2 | z2 F2 z2 |[M:5/8] x5 |] %19

